Papirus-Adapta-Nokto/22x22/actions/distribute-vertical-equal.svg

<svg xmlns="http://www.w3.org/2000/svg" width="22" height="22" viewBox="0 0 22 22">
 <defs>
  <style id="current-color-scheme" type="text/css">
   .ColorScheme-Text { color:#cfd8dc; } .ColorScheme-Highlight { color:#00bcd4; }
  </style>
 </defs>
 <path style="fill:currentColor" class="ColorScheme-Text" d="m3 1v2 1 1h-2v2h2 6 2v-2h-2v-1-1-2h-6zm8 1l2 3 2-3h-4zm-10 7v2h2v4h1 5v-4h2v-2h-10zm12 2l-2 3h4l-2-3z" transform="translate(3 3)"/>
</svg>

<svg xmlns="http://www.w3.org/2000/svg" width="22" height="22" version="1.1">
 <defs>
  <style id="current-color-scheme" type="text/css">
   .ColorScheme-Text { color:#dfdfdf; } .ColorScheme-Highlight { color:#4285f4; } .ColorScheme-NeutralText { color:#ff9800; } .ColorScheme-PositiveText { color:#4caf50; } .ColorScheme-NegativeText { color:#f44336; }
  </style>
 </defs>
 <g transform="translate(3,3)">
  <path style="fill:currentColor" class="ColorScheme-Text" d="M 3,1 V 5 H 1 V 7 H 11 V 5 H 9 V 1 Z M 11,2 13,5 15,2 Z M 1,9 V 11 H 3 V 15 H 9 V 11 H 11 V 9 Z M 13,11 11,14 H 15 Z"/>
 </g>
</svg>
